X:1
T:Prelude, BWV 935
T:Prelude, BWV 935
T:Sechs kleine Präludien
T:Johann Sebastian Bach
C:Johann Sebastian Bach
%%score { 1 | ( 2 3 ) }
L:1/8
Q:3/8=67
M:3/8
K:F
V:1 treble nm="Piano" snm="Pno."
V:2 bass 
V:3 bass 
V:1
"^Allegro vivace, ma non troppo""_alla invenzione, piacevole"!mf! (!tenuto!!3!D/^C/D/A,/!3!D/!5!F/) | %1
 (!tenuto!!3!E/D/E/A,/!3!E/!5!G/) | (!tenuto!!3!F.!5!A).!3!A | %3
 (!>!!3!B/4!2!A/4B/4A/4B/4A/4B/4A/4!3!B/4!2!A/4!1!G/ |!f! .!2!A/)(!3!B/!1!A/!5!f/!4!d/!1!A/ | %5
!mf! .!3!B/)(!2!A/!3!B/!1!G/!2!B/!3!d/ |!f! .!4!e/)(f/e/!2!c/!5!g/!2!B/ | %7
!mf! .!1!A/)(!2!G/!3!A/!>(!!1!F/!2!A/!3!c/)!>)! |!mp! (!tenuto!!4!d/_e/d/c/d/!2!B/) | %9
 (!tenuto!!3!c/!4!d/c/!2!B/!3!c/!1!A/) | (!tenuto!!3!B/!4!c/B/A/B/!1!G/) | %11
 (!tenuto!!3!A/B/A/G/A/!1!F/) |!mf! (!2!B.!5!g).G |!>(! !wedge!.!2!A!wedge!.f!>)!!wedge!.F | %14
!mf! (!3!d.f).B | !wedge!.!2!c!wedge!.f!wedge!.!2!A |!<(! (!1!G/A/!3!=B/!1!c/d/!3!=e/!<)! | %17
!ff! .!1!f/)(!3!_a/g/f/!3!e/!2!d/ |!>(! .!3!e/)(!5!g/!4!f/e/d/c/ | %19
 .!3!_B/)(!5!d/!4!c/B/=A/!>)!G/) |!mf! (!3!A/!4!B/A/G/!3!A/!<(!!2!F/ | %21
 .!1!D) (!tenuto!!3!G3/2!4!A/4!5!B/4 | %22
 (!>!!3!F7/8)!<)!!2!E/8!f!!tenuto!!3!F/4!2!E/4!3!F/4E/4F/4E/4!1!D/4!3!E/4 | %23
"_mano destra" !tenuto!!5!F3) ::!mp! (!2!a/.b/).a/.!4!c'/.!2!a/.!1!f/ | %25
 (!2!g/.a/).g/.!5!c'/.!2!g/.!1!e/ | (!3!f/.!5!a/).g/.f/.e/.d/ | %27
!<(! (!3!e/.d/).c/.d/.!3!e/.!1!f/!<)! |!mf! (!>!!3!g!2!^f/g/!4!a/)(!2!f/ | %29
 !tenuto!!3!g)!wedge!.!1!d!wedge!.!3!_e |!>(! (!tenuto!!1!c/!3!_e/!2!d/!1!c/!3!B/!2!A/) | %31
 (!tenuto!!3!B/!2!A/!1!G/!2!A/!3!B/!>)!.!1!G/) |!mp! (!tenuto!!2!A/!1!G/!2!A/)(!5!d/!3!B/!5!d/) | %33
 (!tenuto!!2!^F/!1!E/!2!F/)(!5!d/!1!G/!5!d/) | (!tenuto!!2!A/!1!G/!2!A/)(!5!d/!1!G/!5!d/) | %35
 (!tenuto!!2!^F/!1!E/!2!F/)(!5!d/!1!A/!3!c/) |!<(! (!tenuto!!2!B/!1!A/!2!B/!3!d/!4!e/!5!g/) | %37
 (!tenuto!!1!A2 .!5!a) | .!1!d/!<)!(!>!!3!=f!>(!!2!e/.!1!d/).!2!^c/!>)! | %39
"_cresc." (!tenuto!!1!d/!2!e/!3!f/e/!3!f/!1!d/) | .!2!^c!>!!5!a/4!4!g/4!5!a3/2- | %41
 a.!2!d!>(!!1!=c- | c!>!!3!B/4!2!A/4!>)!!3!B3/2- |!<(! B/(!2!A/.!1!G/).!2!=F/.!1!E/.!3!^c/ | %44
 (!3!d/!4!e/!3!d/!2!^c/!3!d/.!5!f/)!<)! |!f!!>(! .!1!G.!3!^c!>!!5!e- | %46
 e/(!2!B/!wedge!.!1!A/)!wedge!.!3!G/!wedge!.!2!F/!wedge!.!1!E/!>)! |"_mano destra" !5!D3 :| %48
V:2
 z3 | z3 | (!tenuto!!2!D,/^C,/D,/A,,/D,/F,/) | (!tenuto!!2!E,/D,/E,/A,,/E,/G,/) | %4
 (!2!F,.!4!D,).F, | .G,.G,, z | z .!4!C,.!2!E, | .!1!F,.F,, z | (!4!B,.G).G, | %9
!>(! !wedge!.!4!A,!wedge!.F!>)!!wedge!.F, | (!4!G,.E).!5!E, | %11
!<(! !wedge!.!5!F,!wedge!.C!wedge!._E!<)! | (!tenuto!!2!D/!1!_E/D/C/D/!4!B,/) | %13
 (!tenuto!!3!C/!1!D/!2!C/B,/C/!4!A,/) | (!tenuto!!3!B,/!1!C/!2!B,/A,/B,/G,/) | %15
 (!tenuto!!3!A,/!1!B,/!3!A,/G,/A,/F,/) | !tenuto!..!3!=B,.D.F | !tenuto!..!2!D.!3!=B,.!5!G, | %18
 !tenuto!..!1!C.!2!G,.!3!E, | !tenuto!..!5!C,.D,.E, | (!2!F,/!3!E,/!2!F,/)(!5!C,/!2!F,/!1!A,/) | %21
 (!2!B,/!3!A,/!2!B,/)(!4!G,/!2!B,/!1!D/ | .!2!C/)(!1!D/!2!C/!3!B,/!1!A,/!2!G,/) | %23
"_mano sinistra" !tenuto!!1!A,3 :: !tenuto!..!1!F.!5!F,.F | !tenuto!..!2!E.!3!A,.!3!C | %26
 !tenuto!..!1!D.!2!=B,.!4!G, | !tenuto!..!1!C.!3!E,.!1!G, | %28
 (!tenuto!!3!C,/!2!D,/!3!C,/!1!_E,/!2!C,/!4!A,,/ | !3!_B,,/)(!2!C,/!3!B,,/!1!D,/!2!B,,/!4!G,,/ | %30
 !3!A,,/)(!1!C,/!2!B,,/A,,/!1!G,,/!2!^F,,/ | (!tenuto!!1!G,,/)!4!A,,/!3!B,,/!2!C,/!1!D,/!3!=E,/ | %32
 (!tenuto!!2!^F,).!4!D,).!1!G, | !tenuto!..!2!A,.D,!tenuto!..!2!B, | %34
 (!tenuto!!1!C.!5!D,)!tenuto!..!2!B, | !tenuto!..!1!A,.!5!D,!tenuto!..!3!^F, | %36
 (!tenuto!!2!G,/!3!^F,/!1!G,/)(!2!B,/!1!G,/!2!E,/) | (!3!^C,/!4!=B,,/!3!C,/)(!1!E,/!2!C,/!3!A,,/) | %38
 .!5!=F,,.!4!G,,.!3!A,, | (!tenuto!!2!D,/!3!^C,/!2!D,/!5!A,,/D,/F,/ | %40
 .!2!E,/)(!3!D,/!2!E,/!5!A,,/!2!E,/!1!G,/ | .!2!^F,/)(!3!E,/!2!F,/!4!D,/!2!F,/!1!A,/ | %42
 .!2!G,/)(!3!^F,/!2!G,/!5!D,/!2!G,/!1!B,/) | !tenuto!..!3!^C,.!5!A,,.!1!G, | %44
 (!3!=F,/!2!G,/!3!F,/!4!E,/!3!F,/!5!D,/) | (!tenuto!!2!B,/!1!C/!2!B,/!3!A,/!2!B,/!4!G,/) | %46
 !tenuto!..!5!F,!tenuto!..!3!G,!tenuto!..!1!A, |"_mano sinistra" !2!F,3 :| %48
V:3
 x3 | x3 | x3 | x3 | x3 | x3 | x3 | x3 | x3 | x3 | x3 | x3 | x3 | x3 | x3 | x3 | x3 | x3 | x3 | %19
 x3 | x3 | x3 | x3 | z/ (!1!F,/!2!C,/!4!A,,/ .!5!F,,) :: x3 | x3 | x3 | x3 | x3 | x3 | x3 | x3 | %32
 x3 | x3 | x3 | x3 | x3 | x3 | x3 | x3 | x3 | x3 | x3 | x3 | x3 | x3 | x3 | %47
 z/ !wedge!.!1!D,/!wedge!.!2!A,,/!wedge!.!4!F,,/ !tenuto!!5!D,, :| %48

